src/img/icons.svg

<svg aria-hidden="true" style="position:absolute;width:0;height:0;overflow:hidden"
  xmlns="http://www.w3.org/2000/svg">
  <defs>
    <symbol id="icon-enabled" viewBox="0 0 32 32">
      <path fill="none" stroke="#4e75ff" style="stroke:var(--color1, #4e75ff)" d="M16 6.5c5.247 0 9.5 4.253 9.5 9.5s-4.253 9.5-9.5 9.5-9.5-4.253-9.5-9.5 4.253-9.5 9.5-9.5z"/>
      <path fill="#4e75ff" style="fill:var(--color1, #4e75ff)" d="M16 10a6 6 0 1 1 0 12 6 6 0 0 1 0-12z"/>
    </symbol>
    <symbol id="icon-error" viewBox="0 0 32 32">
      <path d="M9.08.292A.998.998 0 0 1 9.786 0h12.428c.265 0 .519.105.706.292l8.788 8.788a.998.998 0 0 1 .292.706v12.428a.998.998 0 0 1-.292.706l-8.788 8.788a.998.998 0 0 1-.706.292H9.786a.998.998 0 0 1-.706-.292L.292 22.92A.998.998 0 0 1 0 22.214V9.786c0-.265.105-.519.292-.706L9.08.292zM10.2 2 2 10.2v11.6l8.2 8.2h11.6l8.2-8.2V10.2L21.8 2H10.2z"/>
      <path d="M9.292 9.292A.991.991 0 0 1 10 8.999a1.002 1.002 0 0 1 .708.293L16 14.586l5.292-5.294A.991.991 0 0 1 22 8.999a1.006 1.006 0 0 1 .925.618 1.01 1.01 0 0 1 0 .766c-.05.121-.124.232-.217.325L17.414 16l5.294 5.292a.991.991 0 0 1 .293.708 1.006 1.006 0 0 1-.618.925 1.006 1.006 0 0 1-1.091-.217L16 17.414l-5.292 5.294a.991.991 0 0 1-.708.293 1.006 1.006 0 0 1-.925-.618 1.006 1.006 0 0 1 .217-1.091L14.586 16l-5.294-5.292A.991.991 0 0 1 8.999 10a1.002 1.002 0 0 1 .293-.708z"/>
    </symbol>
    <symbol id="icon-brush" viewBox="0 0 32 32">
      <path stroke-linejoin="round" stroke-linecap="round" stroke-width="2.667" d="M17.037 20 12 14.963M2.667 29.333c2.667 0 6.144.456 7.966-1.367a4.668 4.668 0 0 0-6.6-6.6c-1.823 1.823 0 5.3-1.367 7.966z"/>
      <path stroke-linejoin="round" stroke-linecap="round" stroke-width="2.667" d="M10.667 21.333c-.655-.655-.983-.983-1.168-1.326a2.668 2.668 0 0 1 .05-2.623c.198-.336.538-.651 1.218-1.28L23.924 3.921a2.94 2.94 0 0 1 4.153 4.153L15.894 21.231c-.63.68-.944 1.02-1.28 1.218-.805.475-1.8.495-2.623.051-.343-.185-.671-.513-1.326-1.168z"/>
    </symbol>
    <symbol id="icon-hourglass" viewBox="0 0 32 32">
      <path stroke-linejoin="round" stroke-linecap="round" stroke-width="2.667" d="M24.217 2.667H7.783c-.617 0-1.117.5-1.117 1.117a13.4 13.4 0 0 0 3.925 9.475l1.626 1.626c.161.161.242.242.3.32a1.335 1.335 0 0 1 0 1.594c-.058.077-.139.158-.3.32l-1.626 1.626a13.4 13.4 0 0 0-3.925 9.475c0 .617.5 1.117 1.117 1.117h16.434c.617 0 1.117-.5 1.117-1.117a13.4 13.4 0 0 0-3.925-9.475l-1.626-1.626c-.161-.161-.242-.242-.3-.32a1.332 1.332 0 0 1 0-1.594c.058-.077.139-.158.3-.32l1.626-1.626a13.4 13.4 0 0 0 3.925-9.475c0-.617-.5-1.117-1.117-1.117z"/>
    </symbol>
    <symbol id="icon-message-chat-circle" viewBox="0 0 32 32">
      <path stroke-linejoin="round" stroke-linecap="round" stroke-width="2.667" d="M8.126 14.972A10.66 10.66 0 0 1 8 13.334C8 7.443 12.807 2.667 18.737 2.667s10.737 4.776 10.737 10.667c0 1.331-.245 2.605-.693 3.779-.093.244-.14.366-.161.461s-.029.161-.031.257c-.002.097.011.205.037.42l.537 4.36c.058.472.087.708.009.88a.667.667 0 0 1-.343.335c-.173.075-.409.04-.879-.029l-4.247-.623a2.965 2.965 0 0 0-.434-.048c-.1.001-.169.008-.267.028s-.225.068-.477.163a10.78 10.78 0 0 1-3.787.683c-.558 0-1.105-.042-1.64-.124m-6.923 5.457c3.953 0 7.158-3.283 7.158-7.333s-3.205-7.333-7.158-7.333c-3.953 0-7.158 3.283-7.158 7.333 0 .814.13 1.597.369 2.329.101.309.152.464.168.57.017.11.02.172.014.284-.006.107-.033.227-.086.469l-.815 3.682 3.993-.545c.218-.03.327-.045.422-.044.1.001.153.006.252.026.093.019.232.067.51.165a6.994 6.994 0 0 0 2.332.398z"/>
    </symbol>
    <symbol id="icon-user" viewBox="0 0 32 32">
      <path stroke-linejoin="round" stroke-linecap="round" stroke-width="2.667" d="M26.667 28c0-1.861 0-2.791-.23-3.548a5.333 5.333 0 0 0-3.556-3.556c-.757-.23-1.687-.23-3.548-.23h-6.667c-1.861 0-2.791 0-3.548.23a5.335 5.335 0 0 0-3.556 3.556c-.23.757-.23 1.687-.23 3.548M16 16a6 6 0 1 0 0-12 6 6 0 0 0 0 12z"/>
    </symbol>
    <symbol id="icon-x" viewBox="0 0 32 32">
      <path stroke-width="2.667" stroke-linecap="round" stroke-linejoin="round" d="M24 8 8 24M8 8l16 16"/>
    </symbol>
    <symbol id="icon-arrow" viewBox="0 0 20 20" fill="none">
      <path d="m15 7.5-5 5-5-5" stroke="#FAFAFA" stroke-width="2"/>
    </symbol>
    <symbol id="icon-menu-btn-open" viewBox="0 0 32 32">
      <path stroke="#FAFAFA" stroke-linecap="round" stroke-linejoin="round" stroke-width="2" d="M3.5 9.917h21m-21 8.166h21"/>
    </symbol>
    <symbol id="icon-menu-btn-close" viewBox="0 0 28 28">
      <path d="M21 7L7 21" stroke="#FAFAFA" stroke-width="2" stroke-linecap="round" stroke-linejoin="round"/>
      <path d="M7 7L21 21" stroke="#FAFAFA" stroke-width="2" stroke-linecap="round" stroke-linejoin="round"/>
    </symbol>
    <symbol id="icon-arrow-up" viewBox="0 0 48 32">
    <path stroke-linejoin="miter" stroke-linecap="butt" stroke-miterlimit="4" stroke-width="8" d="M44 26l-20-20-20 20"></path>
    </symbol>
    <symbol id="icon-arrow-down" viewBox="0 0 48 32">
    <path stroke-linejoin="miter" stroke-linecap="butt" stroke-miterlimit="4" stroke-width="8" d="M44 6l-20 20-20-20"></path>
    </symbol>
     <symbol id="icon-arrows-right" viewBox="0 0 32 32">
      <path stroke-width="2" stroke-miterlimit="4" stroke-linecap="round" stroke-linejoin="round" d="M5.333 16h21.333"></path>
      <path stroke-width="2" stroke-miterlimit="4" stroke-linecap="round" stroke-linejoin="round" d="M18.667 8l8 8-8 8"></path>
    </symbol>
    <symbol id="icon-arrows-left" viewBox="0 0 32 32">
      <path stroke-width="2" stroke-miterlimit="4" stroke-linecap="round" stroke-linejoin="round" d="M26.667 16h-21.333"></path>
      <path stroke-width="2" stroke-miterlimit="4" stroke-linecap="round" stroke-linejoin="round" d="M13.333 24l-8-8 8-8"></path>
    </symbol>
     <symbol id="arrow" width="24" height="24" viewBox="0 0 24 24" fill="none">
      <path d="M4 12H20" stroke-width="2" stroke-linecap="round" stroke-linejoin="round" />
      <path d="M14 6L20 12L14 18" stroke-width="2" stroke-linecap="round" stroke-linejoin="round" />
    </symbol>
    <symbol id="narrow" width="24" height="24" viewBox="0 0 24 24" fill="none">
      <path d="M20 12H4.00001"  stroke-width="2" stroke-linecap="round" stroke-linejoin="round" />
      <path d="M10 18L4 12L10 6"  stroke-width="2" stroke-linecap="round" stroke-linejoin="round" />
    </symbol>
  </defs>
</svg>

<svg aria-hidden="true" style="position:absolute;width:0;height:0;overflow:hidden" xmlns="http://www.w3.org/2000/svg">
  <defs>
    <symbol id="icon-enabled" viewBox="0 0 32 32">
      <path fill="none" stroke="#4e75ff" style="stroke:var(--color1, #4e75ff)" d="M16 6.5c5.247 0 9.5 4.253 9.5 9.5s-4.253 9.5-9.5 9.5-9.5-4.253-9.5-9.5 4.253-9.5 9.5-9.5z"/>
      <path fill="#4e75ff" style="fill:var(--color1, #4e75ff)" d="M16 10a6 6 0 1 1 0 12 6 6 0 0 1 0-12z"/>
    </symbol>
    <symbol id="icon-error" viewBox="0 0 32 32">
      <path d="M9.08.292A.998.998 0 0 1 9.786 0h12.428c.265 0 .519.105.706.292l8.788 8.788a.998.998 0 0 1 .292.706v12.428a.998.998 0 0 1-.292.706l-8.788 8.788a.998.998 0 0 1-.706.292H9.786a.998.998 0 0 1-.706-.292L.292 22.92A.998.998 0 0 1 0 22.214V9.786c0-.265.105-.519.292-.706L9.08.292zM10.2 2 2 10.2v11.6l8.2 8.2h11.6l8.2-8.2V10.2L21.8 2H10.2z"/>
      <path d="M9.292 9.292A.991.991 0 0 1 10 8.999a1.002 1.002 0 0 1 .708.293L16 14.586l5.292-5.294A.991.991 0 0 1 22 8.999a1.006 1.006 0 0 1 .925.618 1.01 1.01 0 0 1 0 .766c-.05.121-.124.232-.217.325L17.414 16l5.294 5.292a.991.991 0 0 1 .293.708 1.006 1.006 0 0 1-.618.925 1.006 1.006 0 0 1-1.091-.217L16 17.414l-5.292 5.294a.991.991 0 0 1-.708.293 1.006 1.006 0 0 1-.925-.618 1.006 1.006 0 0 1 .217-1.091L14.586 16l-5.294-5.292A.991.991 0 0 1 8.999 10a1.002 1.002 0 0 1 .293-.708z"/>
    </symbol>
    <symbol id="icon-brush" viewBox="0 0 32 32">
      <path stroke-linejoin="round" stroke-linecap="round" stroke-width="2.667" d="M17.037 20 12 14.963m-9.333 14.37c2.667 0 6.144.456 7.966-1.367a4.668 4.668 0 0 0-6.6-6.6c-1.823 1.823 0 5.3-1.367 7.966z"/>
      <path stroke-linejoin="round" stroke-linecap="round" stroke-width="2.667" d="M10.667 21.333c-.655-.655-.983-.983-1.168-1.326a2.668 2.668 0 0 1 .05-2.623c.198-.336.538-.651 1.218-1.28L23.924 3.921a2.94 2.94 0 0 1 4.153 4.153L15.894 21.231c-.63.68-.944 1.02-1.28 1.218-.805.475-1.8.495-2.623.051-.343-.185-.671-.513-1.326-1.168z"/>
    </symbol>
    <symbol id="icon-hourglass" viewBox="0 0 32 32">
      <path stroke-linejoin="round" stroke-linecap="round" stroke-width="2.667" d="M24.217 2.667H7.783c-.617 0-1.117.5-1.117 1.117a13.4 13.4 0 0 0 3.925 9.475l1.626 1.626c.161.161.242.242.3.32a1.335 1.335 0 0 1 0 1.594c-.058.077-.139.158-.3.32l-1.626 1.626a13.4 13.4 0 0 0-3.925 9.475c0 .617.5 1.117 1.117 1.117h16.434c.617 0 1.117-.5 1.117-1.117a13.4 13.4 0 0 0-3.925-9.475l-1.626-1.626c-.161-.161-.242-.242-.3-.32a1.332 1.332 0 0 1 0-1.594c.058-.077.139-.158.3-.32l1.626-1.626a13.4 13.4 0 0 0 3.925-9.475c0-.617-.5-1.117-1.117-1.117z"/>
    </symbol>
    <symbol id="icon-message-chat-circle" viewBox="0 0 32 32">
      <path stroke-linejoin="round" stroke-linecap="round" stroke-width="2.667" d="M8.126 14.972A10.66 10.66 0 0 1 8 13.334C8 7.443 12.807 2.667 18.737 2.667s10.737 4.776 10.737 10.667c0 1.331-.245 2.605-.693 3.779-.093.244-.14.366-.161.461s-.029.161-.031.257c-.002.097.011.205.037.42l.537 4.36c.058.472.087.708.009.88a.667.667 0 0 1-.343.335c-.173.075-.409.04-.879-.029l-4.247-.623a2.965 2.965 0 0 0-.434-.048c-.1.001-.169.008-.267.028s-.225.068-.477.163a10.78 10.78 0 0 1-3.787.683c-.558 0-1.105-.042-1.64-.124m-6.923 5.457c3.953 0 7.158-3.283 7.158-7.333s-3.205-7.333-7.158-7.333c-3.953 0-7.158 3.283-7.158 7.333 0 .814.13 1.597.369 2.329.101.309.152.464.168.57.017.11.02.172.014.284-.006.107-.033.227-.086.469l-.815 3.682 3.993-.545c.218-.03.327-.045.422-.044.1.001.153.006.252.026.093.019.232.067.51.165a6.994 6.994 0 0 0 2.332.398z"/>
    </symbol>
    <symbol id="icon-user" viewBox="0 0 32 32">
      <path stroke-linejoin="round" stroke-linecap="round" stroke-width="2.667" d="M26.667 28c0-1.861 0-2.791-.23-3.548a5.333 5.333 0 0 0-3.556-3.556c-.757-.23-1.687-.23-3.548-.23h-6.667c-1.861 0-2.791 0-3.548.23a5.335 5.335 0 0 0-3.556 3.556c-.23.757-.23 1.687-.23 3.548M16 16a6 6 0 1 0 0-12 6 6 0 0 0 0 12z"/>
    </symbol>
    <symbol id="icon-x" viewBox="0 0 32 32">
      <path stroke-width="2.667" stroke-linecap="round" stroke-linejoin="round" d="M24 8 8 24M8 8l16 16"/>
    </symbol>
    <symbol id="icon-arrow" viewBox="0 0 20 20" fill="none">
      <path d="m15 7.5-5 5-5-5" stroke="#FAFAFA" stroke-width="2"/>
    </symbol>
    <symbol id="icon-menu-btn-open" viewBox="0 0 32 32">
      <path stroke="#FAFAFA" stroke-linecap="round" stroke-linejoin="round" stroke-width="2" d="M3.5 9.917h21m-21 8.166h21"/>
    </symbol>
    <symbol id="icon-menu-btn-close" viewBox="0 0 28 28">
      <path d="M21 7 7 21M7 7l14 14" stroke="#FAFAFA" stroke-width="2" stroke-linecap="round" stroke-linejoin="round"/>
    </symbol>
    <symbol id="icon-arrow-up" viewBox="0 0 48 32">
      <path stroke-width="8" d="M44 26 24 6 4 26"/>
    </symbol>
    <symbol id="icon-arrow-down" viewBox="0 0 48 32">
      <path stroke-width="8" d="M44 6 24 26 4 6"/>
    </symbol>
    <symbol id="icon-arrow-right" viewBox="0 0 32 32">
      <path stroke-linejoin="round" stroke-linecap="round" stroke-width="2" d="M5.333 16h21.333M18.667 8l8 8-8 8"/>
    </symbol>
    <symbol id="icon-arrows-right" viewBox="0 0 32 32">
      <path stroke-width="2" stroke-linecap="round" stroke-linejoin="round" d="M5.333 16h21.333M18.667 8l8 8-8 8"/>
    </symbol>
    <symbol id="icon-arrows-left" viewBox="0 0 32 32">
      <path stroke-width="2" stroke-linecap="round" stroke-linejoin="round" d="M26.667 16H5.334M13.333 24l-8-8 8-8"/>
    </symbol>
    <symbol id="icon-arrow-left" viewBox="0 0 24 24" fill="none">
      <path d="M20 12H4M10 18l-6-6 6-6" stroke-width="2" stroke-linecap="round" stroke-linejoin="round"/>
    </symbol>
    <symbol id="icon-arrow-right" viewBox="0 0 32 32">
      <path fill="none" stroke="#fafafa" style="stroke:var(--color1, #fafafa)" stroke-linejoin="round" stroke-linecap="round" stroke-width="2" d="M5.333 16h21.333M18.667 8l8 8-8 8"/>
    </symbol>
  </defs>
</svg>
